share/.local/share/icons/Papirus-Nordic/64x64/apps/retroarch.svg

<svg xmlns="http://www.w3.org/2000/svg" width="64" height="64" version="1">
 <rect style="opacity:0.2" width="56" height="56" x="4" y="5" rx="2.8" ry="2.8"/>
 <rect style="fill:#e4e4e4" width="56" height="56" x="4" y="4" rx="2.8" ry="2.8"/>
 <path style="fill:#565656" d="m 22,18 4,6 -8,0 -1,4 -4.5,0 1.5,-6 -3,0 -3,12 2.823529,0 4.376471,0 -1.2,4 7,0 -5,6 6,0 4,-6 12,0 4,6 6,0 -5,-6 7,0 -1.2,-4 7.2,0 -3,-12 -3,0 1.5,6 -4.5,0 -1,-4 -8,0 4,-6 -3,0 -4,6 -6,0 -4,-6 z"/>
 <path style="opacity:0.2" d="m 38,28 0,5 5,0 0,-5 -5,0 z"/>
 <path style="fill:#ffffff" d="m 38,27 0,5 5,0 0,-5 -5,0 z"/>
 <path style="opacity:0.2;fill:#ffffff" d="M 6.8007812 4 C 5.2495812 4 4 5.2495812 4 6.8007812 L 4 7.8007812 C 4 6.2495813 5.2495812 5 6.8007812 5 L 57.199219 5 C 58.750419 5 60 6.2495812 60 7.8007812 L 60 6.8007812 C 60 5.2495813 58.750419 4 57.199219 4 L 6.8007812 4 z"/>
 <path style="opacity:0.2" d="m 21,28 0,5 5,0 0,-5 -5,0 z"/>
 <path style="fill:#ffffff" d="m 21,27 0,5 5,0 0,-5 -5,0 z"/>
</svg>

<svg xmlns="http://www.w3.org/2000/svg" width="64" height="64" version="1">
 <rect style="opacity:0.2" width="56" height="56" x="4" y="5" rx="8.4" ry="8.4"/>
 <rect style="fill:#3f3f3f" width="56" height="56" x="4" y="4" rx="8.4" ry="8.4"/>
 <path style="opacity:0.2" d="m 22,19 4,6 h -8 l -1,4 H 12.5 L 14,23 H 11 L 8,35 h 2.824219 4.375 L 14,39 h 7 l -5,6 h 6 l 4,-6 h 12 l 4,6 h 6 l -5,-6 h 7 L 48.800781,35 H 56 L 53,23 h -3 l 1.5,6 H 47 l -1,-4 h -8 l 4,-6 h -3 l -4,6 h -6 l -4,-6 z m -1,9 h 5 v 5 h -5 z m 17,0 h 5 v 5 h -5 z"/>
 <path style="fill:#ffffff" d="M 22 18 L 26 24 L 18 24 L 17 28 L 12.5 28 L 14 22 L 11 22 L 8 34 L 10.824219 34 L 15.199219 34 L 14 38 L 21 38 L 16 44 L 22 44 L 26 38 L 38 38 L 42 44 L 48 44 L 43 38 L 50 38 L 48.800781 34 L 56 34 L 53 22 L 50 22 L 51.5 28 L 47 28 L 46 24 L 38 24 L 42 18 L 39 18 L 35 24 L 29 24 L 25 18 L 22 18 z M 21 27 L 26 27 L 26 32 L 21 32 L 21 27 z M 38 27 L 43 27 L 43 32 L 38 32 L 38 27 z"/>
 <path style="fill:#ffffff;opacity:0.1" d="M 12.400391 4 C 7.7467908 4 4 7.7467908 4 12.400391 L 4 13.400391 C 4 8.7467908 7.7467908 5 12.400391 5 L 51.599609 5 C 56.253209 5 60 8.7467908 60 13.400391 L 60 12.400391 C 60 7.7467908 56.253209 4 51.599609 4 L 12.400391 4 z"/>
</svg>
